X:0941
T:Wilt thou be my Dearie.
M:C
L:1/8
Q:1/4=100
I: ||
Z:Jack Campin * www.campin.me.uk * 2009
K:G
D|G>DE>D G2 D2|G>A{GA}BG    BA`A>B|\
  G>DE>D G2 D2|G>ABB        BB B2 |
  A>GAB  e3  g|d>e {e}dc/B/ eA`A>B|\
  G>DE>D G2 D2|e>d    ed/B/ d>BA>B|G>DE>D G2D|]

